public/images/werehouse.svg

<svg width="21.5" height="21.5" fill="none" xmlns="http://www.w3.org/2000/svg"><path d="M20.75 16.59c0 2.3-.46 4.16-2.78 4.16H3.52c-2.32 0-2.77-1.86-2.77-4.16V9.38c0-1.27.58-2.07 1.6-2.86l6.17-4.88c1.53-1.19 2.92-1.19 4.45 0l6.17 4.88c1.02.79 1.61 1.59 1.61 2.86v7.21zM6.01 13.48h9.47m-9.47 3.11h9.47m-9.47-6.23h9.47" stroke="#1B31FF" stroke-width="1.5" stroke-linecap="round"/></svg>

<svg width="21.500000" height="21.500000" viewBox="0 0 21.5 21.5" fill="none" xmlns="http://www.w3.org/2000/svg" xmlns:xlink="http://www.w3.org/1999/xlink">
	<desc>
			Created with Pixso.
	</desc>
	<defs/>
	<path id="Rectangle 75" d="M20.75 16.59C20.75 18.89 20.29 20.75 17.97 20.75L3.52 20.75C1.2 20.75 0.75 18.89 0.75 16.59L0.75 9.38C0.75 8.11 1.33 7.31 2.35 6.52L8.52 1.64C10.05 0.45 11.44 0.45 12.97 1.64L19.14 6.52C20.16 7.31 20.75 8.11 20.75 9.38L20.75 16.59ZM6.01 13.48L15.48 13.48M6.01 16.59L15.48 16.59M6.01 10.36L15.48 10.36" stroke="#1B31FF" stroke-opacity="1.000000" stroke-width="1.500000" stroke-linecap="round"/>
</svg>
